packages/sources/icons/src/vitamix/documents.svg

<svg width="24" height="24" viewBox="0 0 24 24" fill="none" xmlns="http://www.w3.org/2000/svg">
<path fill-rule="evenodd" clip-rule="evenodd" d="M9.12803 16.5H3V21H21V16.5H14.872C14.5631 17.3739 13.7297 18 12.75 18H11.25C10.2703 18 9.43691 17.3739 9.12803 16.5ZM9.12803 15C9.43691 14.1261 10.2703 13.5 11.25 13.5H12.75C13.7297 13.5 14.5631 14.1261 14.872 15H21V7.5H3V15H9.12803ZM15 6C15 4.34315 13.6569 3 12 3C10.3431 3 9 4.34315 9 6H15ZM16.5 6H21C21.8284 6 22.5 6.67157 22.5 7.5V21C22.5 21.8284 21.8284 22.5 21 22.5H3C2.17157 22.5 1.5 21.8284 1.5 21V7.5C1.5 6.67157 2.17157 6 3 6H7.5C7.5 3.51472 9.51472 1.5 12 1.5C14.4853 1.5 16.5 3.51472 16.5 6ZM11.25 15C10.8358 15 10.5 15.3358 10.5 15.75C10.5 16.1642 10.8358 16.5 11.25 16.5H12.75C13.1642 16.5 13.5 16.1642 13.5 15.75C13.5 15.3358 13.1642 15 12.75 15H11.25Z" fill="#001018"/>
</svg>

<svg width="24" height="24" fill="none" xmlns="http://www.w3.org/2000/svg"><path fill-rule="evenodd" clip-rule="evenodd" d="M9.128 16.5H3V21h18v-4.5h-6.128A2.251 2.251 0 0 1 12.75 18h-1.5a2.25 2.25 0 0 1-2.122-1.5zm0-1.5a2.25 2.25 0 0 1 2.122-1.5h1.5c.98 0 1.813.626 2.122 1.5H21V7.5H3V15h6.128zM15 6a3 3 0 1 0-6 0h6zm1.5 0H21a1.5 1.5 0 0 1 1.5 1.5V21a1.5 1.5 0 0 1-1.5 1.5H3A1.5 1.5 0 0 1 1.5 21V7.5A1.5 1.5 0 0 1 3 6h4.5a4.5 4.5 0 0 1 9 0zm-5.25 9a.75.75 0 0 0 0 1.5h1.5a.75.75 0 0 0 0-1.5h-1.5z" fill="#001018"/></svg>
